!! 00025] TT[TB
!! Zh. Ch. M-2523, NN), MZ 2305)
!!!OTL: Lishui chuan gong haozi   3. 1: Pingban; 2: Shuban; 3: Kuaiban
!!!ARE: Asia, China,ÿHunan, Jinshi, Lixian
!! Ethnic Group: Han
!! I, 550, 2)
!!!SCT: C0131C
!!!YEM: Copyright 1995, estate of Helmut Schaffrath.
**kern
*ICvox
*Ivox
*M2/4
*k[b-e-]
*B-:
{4ccc
4ddd
=1
4ccc
4ddd
=2
4fff
4ddd
=3
4fff}
{16ddd
16ccc
8bb-
=4
8bb-
8gg
8ccc
8r
=5
8bb-
8gg}
{16bb-
16gg
16bb-
16gg
=6
8bb-
8gg
8ccc
8r
=7
8bb-
8gg}
{16gg
16gg
16bb-
16gg
=8
8bb-
8gg
8ccc
8r
=9
8bb-
8gg}
{16ccc
16gg
16bb-
16gg
=10
8bb-
8gg
8ccc
8r
=11
8bb-
8gg}
{16fff
16fff
16fff
16ddd
=12
4fff
4ddd
=13
4ccc
4ddd
=14
4fff
4ddd
=15
4ccc}
{16ddd
16ddd
16ddd
16ddd
=16
8ccc
8ddd
16ddd
16ccc
8bb-
=17
8bb-
8g
4r}
==
!!!AGN: Haozi, Chuangong haozi. Jishui xingchuan shi chang
!! I: Yao Meizo hu he; II: di chiang; III: gao chiang
!!    Zu diesen Themen gibt es viele Melodien.
!!    +++ANGABEN UeBERPRueFEN, AUS VORHERIGEM LIED UNGEPRUEFT UEBERNOMMEN!!!+++
!!    Angegeben ist die erste Strophe. Auf die Takte 5-17 werden die Strophen
!!    2 und 3 gesungen. Die letzten beiden Takte: +1_6_x_x_  x_x_0__ //
!!    +++Zweistimmig!!! Notiert ist die Oberstimme ausser in T.5-12, in denen
!!    die Stimmen abwechseln: +1_6_ wird von der Unterstimme gesungen.
!!    Viele Verzierungen.
!!!ONB: ESAC (Essen Associative Code) Database: CHINA
!!!AMT: simple duple
!!!AIN: vox
!!!EED: Helmut Schaffrath
!!!EEV: 1.0
*-
